X: 1
T: Rattling Bog
O: arr. by Tom Morley
F: http://www.tuneworks.co.uk/
Z: 2019 John Chambers <jc:trillian.mit.edu>
S: Rustic Roots Tunebook 2019 v.1 p.19
M: 4/4
L: 1/8
K: D
"A"|:\
"D"vf4 ("D7"f3e) | "G"d2B2 B2d2 | "D"A2d2 dcde | "E7"f2e2 "A7"e2a2 |\ 
"D"f4 ("D7"f3e) | "G"d2B2 B2d2 | "D"A2a2 ("G"a2f2) | "A7"ue2d2 "D"d4 :| 
|:\
"D"vf2d2 "A7"e2d2 | "D"f2d2 ("A7"e2de) | "D"f2a2 a2f2 | "G"e2d2 "A7"e3e |\
"D"vf2d2 "A7"e2d2 | "D"f2d2 ("A7"e2de) | "D"f2a2 a2f2 | "A7"ue2d2 "D"d4 :| 
